dist/svg/user-export-o.svg

<svg width="16" height="16" viewBox="0 0 16 16" fill="rgb(34, 34, 34)" xmlns="http://www.w3.org/2000/svg"><title>user-export-o</title><path d="M7.00001 14H11V15H2.00001C1.93401 15.008 1.85701 15.013 1.77901 15.013C1.07101 15.013 0.456008 14.616 0.144008 14.032L0.139008 14.022C-0.378992 12.803 0.651008 10.818 1.93401 9.487C2.82501 8.506 3.95501 7.759 5.23401 7.337L5.28901 7.321C4.20501 6.604 3.50001 5.391 3.50001 4.013C3.50001 4.008 3.50001 4.003 3.50001 3.999C3.50001 1.79 5.29101 0 7.50001 0C9.70901 0 11.5 1.791 11.5 4C11.5 4.004 11.5 4.008 11.5 4.012C11.5 5.411 10.773 6.641 9.67701 7.344L9.66101 7.353C10.179 7.527 10.621 7.725 11.041 7.959L11 7.938V9.113C10.391 8.71 9.68501 8.386 8.93101 8.181L8.88001 8.169L8.50001 8.075V6.835L8.78401 6.699C9.80701 6.206 10.5 5.178 10.5 3.988C10.5 2.331 9.15701 0.988 7.50001 0.988C5.84301 0.988 4.50001 2.331 4.50001 3.988C4.50001 5.178 5.19301 6.207 6.19801 6.691L6.21601 6.699L6.50001 6.835V8.063L6.10201 8.145C4.72201 8.464 3.54301 9.184 2.66101 10.174L2.65501 10.181C1.50301 11.375 0.772008 12.955 1.06001 13.632C1.09801 13.723 1.29501 14 1.99901 14H7.00001ZM16 12L12 8V11H8.00001V13H12V16L16 12Z" fill="rgb(34, 34, 34)" fill-opacity="1.00"/></svg>

<!-- Generated by Trend Micro Style Portal -->
<svg version="1.1" xmlns="http://www.w3.org/2000/svg" width="16" height="16" viewBox="0 0 16 16">
  <title>user-export-o</title>
  <path fill="rgb(34,34,34)" d="M7 14h4v1h-9c-0.066 0.008-0.143 0.013-0.221 0.013-0.708 0-1.323-0.397-1.635-0.981l-0.005-0.010c-0.518-1.219 0.512-3.204 1.795-4.535 0.891-0.981 2.021-1.728 3.3-2.15l0.055-0.016c-1.084-0.717-1.789-1.93-1.789-3.308 0-0.005 0-0.010 0-0.014v0.001c0-2.209 1.791-4 4-4s4 1.791 4 4v0c0 0.004 0 0.008 0 0.012 0 1.399-0.727 2.629-1.823 3.332l-0.016 0.009c0.518 0.174 0.96 0.372 1.38 0.606l-0.041-0.021v1.175c-0.609-0.403-1.315-0.727-2.069-0.932l-0.051-0.012-0.38-0.094v-1.24l0.284-0.136c1.023-0.493 1.716-1.521 1.716-2.711 0-1.657-1.343-3-3-3s-3 1.343-3 3c0 1.19 0.693 2.219 1.698 2.703l0.018 0.008 0.284 0.136v1.228l-0.398 0.082c-1.38 0.319-2.559 1.039-3.441 2.029l-0.006 0.007c-1.152 1.194-1.883 2.774-1.595 3.451 0.038 0.091 0.235 0.368 0.939 0.368zM16 12l-4-4v3h-4v2h4v3z"></path>
</svg>
